X: 1762
T: Sevdâsı Henüz Sînede
C: Yorgo Bacanos
O: Turkey
F: http://compmusic.upf.edu/node/140
N: huzzam--sarki--turkaksagi--sevdasi_henuz--yorgo_bacanos
N: makam= huzzam
N: form= sarki
N: usul= turkaksagi = 5/8
M: 5/8
L: 1/16
K: C _1/4B _3/4e ^3/4f 
Q: 1/4=108
%%MIDI tuningsystem comma53
g2fa g3/2f/ef ed | dc g2g2 f2g2  | zd2e fgfg e/d/e | 
w:  Sev *  *  dâ  |  sı  *  he nüz   |  sî  | 
g3/2f/ e3/2d/d6  | g4 g/f/{g}f/e/e/d/{e}d/c/ d2 | \
w:  ne *  de  *  gön  |  lüm   | 
_b/a/g fede fga2  | 
w:   | 
g2a2 _bb/a/gf ed | d4(3d_1/4ed (3cB^AB2  | \
w:  gi bi  sağ  |  dı   SAZ  | 
g2fa g3/2f/ef ed | 
w:  Sev *  *  dâ  | 
dc g2g2 f2g2  | zd2e fgfg e/d/e | g3/2f/ e3/2d/d6  | 
w:  sı  *  he nüz   |  sî  |  ne *  de  *  gön  | 
g4 g/f/{g}f/e/e/d/{e}d/c/ d2 | _b/a/g fede fga2  | \
w:  lüm   |   | 
g2a2 _bb/a/gf ed | 
w:  gi bi  sağ  | 
d4cd efg2  | d3c g4 f/e/f | g2 g2(3agf g4  | \
w:  dı   SAZ  |  Ru *  hum  |  da  çi çek  | 
a/a/gfe fgfg e/d/e | 
w:  ler   | 
g2 g2gg/f/ f/e/{f}e/d/e2  | defe ff/e/ed ed | 
w:  ya ra tan   |  ne   | 
fg ag_ba/g/ fed2  | c2d2 ef(3ddc (3ccB | \
w:  neş  |  e si  var  | 
B4cd efg2  | 
w:  dı   SAZ  | 
d3c g4 f/e/f | g2 g2(3agf g4  | a/a/gfe fgfg e/d/e | 
w:  Ru *  hum  |  da  çi çek  |  ler   | 
g2 g2gg/f/ f/e/{f}e/d/e2  | defe ff/e/ed ed | 
w:  ya ra tan   |  ne   | 
fg ag_ba/g/ fed2  | c2d2 ef(3ddc (3ccB | \
w:  neş  |  e si  var  | 
B4g6  | 
w:  dı   SAZ  | 
g2=f2 (3_1/4ede(3fgf e/d/c/d/ | dc g2g4=f2  | \
w:  Göz *  yaş  |  la *  rı  sev  | 
ga=f_1/4e (3dcd(3ede (3fef | 
w:  dâ  | 
g2 g2e3/2d/ =f3/2e/d2  | zd2e f3/2e/d3/2c/ B2 | \
w:  mı za  bir   |  çiğ   | 
zg fag2 fed2  | 
w:  çiğ   | 
g2a2 {c'}bb/a/gf ed | d4cd efg2  | d3c g4 f/e/f | 
w:  gi bi  *  yağ  |  dı    |  Ru *  hum  | 
g2 g2(3agf g4  | a/a/gfe fgfg e/d/e | \
w:  da  çi çek  |  ler   | 
g2 g2gg/f/ f/e/{f}e/d/e2  | 
w:  ya ra tan   | 
defe ff/e/ed ed | fg ag_ba/g/ fed2  | 
w:  ne   |  neş  | 
c2d2 ef(3ddc (3ccB | B4cd efg2  | d3c g4 f/e/f | 
w:  e si  var  |  dı   SAZ  |  Ru *  hum  | 
g2 g2(3agf g4  | a/a/gfe fgfg e/d/e | \
w:  da  çi çek  |  ler   | 
g2 g2gg/f/ f/e/{f}e/d/e2  | 
w:  ya ra tan   | 
defe ff/e/ed ed | fg ag_ba/g/ fed2  | 
w:  ne   |  neş  | 
c2d2 ef(3ddc (3ccB | B4|
w:  e si  var  |  dı    | 


